proprietary/assets/icons/infrastructuur-en-transport/bord-50-km.svg

<svg viewBox="0 0 64 64" xmlns="http://www.w3.org/2000/svg"><path d="m0 0h64v64h-64z" fill="none"/><path d="m32 5a27 27 0 1 0 27 27 27 27 0 0 0 -27-27zm0 51a24 24 0 1 1 24-24 24 24 0 0 1 -24 24z"/><path d="m31.2 29c0-3.19-2.18-5.43-6.32-5.43-.65 0-1.07 0-1.77.08v-3.52h7.09v-3h-10v9.71c1-.11 2.21-.19 3.19-.19 2.8 0 4 1.06 4 2.85 0 2.16-2.05 3.45-5 3.45h-2.47v2.8h2.32c5.35.01 8.96-2.62 8.96-6.75z"/><path d="m39.55 16.89c-3.47 0-6.5 2.82-6.5 9.71 0 7.17 2.8 9.16 6.19 9.16s6.55-2.89 6.55-9.55c0-6.92-2.79-9.32-6.24-9.32zm-.2 16c-1.45 0-2.49-1.49-2.49-6.58 0-4.82 1.18-6.47 2.55-6.47s2.59 1.53 2.59 6.68c0 4.53-1.11 6.33-2.65 6.33z"/><path d="m24.82 41.05h-1.51l-1.51 1.93h-.45v-4.17l-1.36.07v7.63h1.36v-2.5h.53l1.45 2.5h1.63l-1.97-3.17z"/><path d="m32.27 41a2.74 2.74 0 0 0 -1.72.61 1.77 1.77 0 0 0 -1.48-.61 2.33 2.33 0 0 0 -1.43.45v-.45h-1.31v5.43h1.35v-4.03a2.35 2.35 0 0 1 .95-.17c.59 0 .93.27.93 1v3.27h1.36v-4.1a2.21 2.21 0 0 1 .94-.17c.61 0 .94.28.94 1v3.27h1.35v-3.56a1.74 1.74 0 0 0 -1.88-1.94z"/><path d="m35.09 48.02 1.01.29 2.59-9.44-1.01-.29z"/><path d="m42.62 45.14a2.07 2.07 0 0 1 -1 .22c-.63 0-.9-.28-.9-1v-3.36h-1.34v3.51c0 1.29.62 2 1.89 2a2.35 2.35 0 0 0 1.38-.49v.38h1.35v-5.4h-1.34z"/></svg>

<svg xmlns="http://www.w3.org/2000/svg" viewBox="0 0 64 64"><defs><style>.cls-1{fill:none;}</style></defs><g id="BOX"><rect class="cls-1" width="64" height="64"/></g><g id="ICOON"><path d="M32,5A27,27,0,1,0,59,32,27,27,0,0,0,32,5Zm0,51A24,24,0,1,1,56,32,24,24,0,0,1,32,56Z"/><path d="M31.2,29c0-3.19-2.18-5.43-6.32-5.43-.65,0-1.07,0-1.77.08V20.13H30.2v-3h-10v9.71c1-.11,2.21-.19,3.19-.19,2.8,0,4,1.06,4,2.85,0,2.16-2.05,3.45-5,3.45H19.92v2.8h2.32C27.59,35.76,31.2,33.13,31.2,29Z"/><path d="M39.55,16.89c-3.47,0-6.5,2.82-6.5,9.71,0,7.17,2.8,9.16,6.19,9.16s6.55-2.89,6.55-9.55C45.79,19.29,43,16.89,39.55,16.89Zm-.2,16c-1.45,0-2.49-1.49-2.49-6.58,0-4.82,1.18-6.47,2.55-6.47S42,21.37,42,26.52C42,31.05,40.89,32.85,39.35,32.85Z"/><polygon points="24.82 41.05 23.31 41.05 21.8 42.98 21.35 42.98 21.35 38.81 19.99 38.88 19.99 46.51 21.35 46.51 21.35 44.01 21.88 44.01 23.33 46.51 24.96 46.51 22.99 43.34 24.82 41.05"/><path d="M32.27,41a2.74,2.74,0,0,0-1.72.61A1.77,1.77,0,0,0,29.07,41a2.33,2.33,0,0,0-1.43.45V41l-1.31,0v5.43h1.35V42.4a2.35,2.35,0,0,1,.95-.17c.59,0,.93.27.93,1v3.27h1.36V42.4a2.21,2.21,0,0,1,.94-.17c.61,0,.94.28.94,1v3.27h1.35V42.94A1.74,1.74,0,0,0,32.27,41Z"/><polygon points="35.09 48.02 36.1 48.31 38.69 38.87 37.68 38.58 35.09 48.02"/><path d="M42.62,45.14a2.07,2.07,0,0,1-1,.22c-.63,0-.9-.28-.9-1V41l-1.34,0v3.51c0,1.29.62,2,1.89,2a2.35,2.35,0,0,0,1.38-.49v.38H44V41l-1.34,0Z"/></g></svg>
